X:1
T:James Gibb editions
T:Beati immaculati - Victoria
T:#
%%score [ 1 2 3 4 ]
L:1/8
Q:1/4=96
M:2/2
K:D
V:1 treble nm="Alto I" snm="A I"
V:2 treble nm="Alto II" snm="A II"
V:3 treble-8 nm="Tenor" snm="T"
V:4 bass nm="Bass" snm="B"
V:1
"^Tomas Luis de Victoria\n(1548-1611)""^Beati immaculati" z8 | z4 B,4- | B,4 E4 | D2 B,2 F2 F2 | %4
w: |Be\-|* a-|ti im- ma- cu-|
 G4 F4 | z2 F2 B4 | A2 F2 A2 B2 | G4 F2 ^D2 | (E2 B,C DEFG | A2 F4 E2) | F6 D2 | (E2 DCDB, B2- | %12
w: la- ti,|be- a-|ti im- ma- cu-|la- ti in|vi\- * * * * * *||a, in|vi\- * * * * *|
 B2 AG A4) | B4 z2 F2 | A3 A A2 G2 | A2 F2 (G2 F2- | F2) E2 F4 | z2 F2 A3 A | A2 ^G2 A2 F2 | %19
w: |a: qui|am- bu- lant in|le- ge Do\- *|* mi- ni,|qui am- bu-|lant in le- ge|
 (=G6 FE | F6) D2 | E4 z4 | z4 z2 B,2 | D3 D D2 C2 | ^D2 E2 (F3 E/F/ | G2) G2 F4 | z8 | z2 B,2 E4 | %28
w: Do\- * *|* mi-|ni,|qui|am- bu- lant in|le- ge Do\- * *|* mi- ni.||Be- a-|
 D2 B,2 C2 (D2- | D2 CB, A,2 B,2 | =C4 B,2 E2- | E2 D2 B,2 C2 | D4 (A4 | G2 F3 E E2- | E2 ^DC D4) | %35
w: ti qui scru- tan\-||* tur te\-|* sti- mo- ni-|a e\-|||
 E4 z2 F2 | F2 F2 G4 | F2 B,2 ^D2 D2 | E4 F2 ^D2 | E2 F2 G4- | G2 F2) E2 (B,2 | =CB, B,4 A,2) | %42
w: jus: in|to- to cor-|de ex- qui- runt|e- um, ex-|qui- runt e\-|* * um, e\-||
 B,2 ^D2 D2 D2 | E4 ^D2 F2 | G2 A2 (B4 | A3 ^G F2 E2- | E2 ^DC D4) | E4 z2 B,2 | %48
w: um, in to- to|cor- de ex-|qui- runt e\-|||um, ex-|
 C2 ^D2[Q:1/4=94] (E4- |[Q:1/4=92] E2[Q:1/4=91] D2[Q:1/4=90] E3[Q:1/4=89] F | %50
w: qui- runt e\-||
[Q:1/4=88] ^G[Q:1/4=87]A[Q:1/4=86] B4[Q:1/4=84] A2 | %51
w: |
[Q:1/4=83] ^G2[Q:1/4=82] F[Q:1/4=82]E[Q:1/4=81] F4) |[Q:1/4=80] ^G8 |] %53
w: |um.|
V:2
 B,8 | E4 D2 B,2 | F2 F2 G4 | F6 ^D2 | E2 (B,C DEFG | A2) F4 E2 | F6 D2 | (E2 B,C DE FE/F/ | %8
w: Be-|a- ti im-|ma- cu- la-|ti in|vi- a, * * * * *|* in vi-|a, in|vi\- * * * * * * *|
 G4) F4 | z2 F2 B4 | A2 F2 A2 B2 | G4 F2 ^D2 | E8 | D2 B,2 D3 D | D2 C2 D2 E2 | (F3 D E2 F2 | %16
w: * a,|be- a-|ti im- ma cu-|la- ti in|vi-|a: qui am- bu-|lant in le- ge|Do\- * * *|
 G2) G2 F2 D2 | F3 F F2 E2 | F2 E2 (C2 D2- | D2) C2 D4 | z2 B,2 D3 D | D2 C2 D2 E2 | (F2 G3 A B2- | %23
w: * mi- ni, qui|am- bu- lant in|le- gè Do\- *|* mi- ni,|qui am- bu-|lant in le- ge|Do\- * * *|
 B2 A2 B2 AG | F2 E4) ^D2 | E4 z4 | z4 z2 E2 | B4 G2 E2 | F2 (G4 FE | D2 E2 F4) | E2 A4 G2 | %31
w: |* * mi-|ni.|Be-|a- ti qui|scru- tan\- * *||tur te- sti-|
 (E2 F2 ^G2 A2- | A2) G2 F2 (E2- | E2 ^D2) E4 | z2 F2 F2 F2 | G4 F2 B,2 | ^D2 D2 E2 (B,C | %37
w: mo\- * * *|* ni- a e\-|* * jus:|in to- to|cor- de, in|to- to cor- de *|
 DE F3) B, B2- | BB A2 B4 | z4 z2 B,2 | E2 F2 (G4- | G2 F2 E4) | ^D2 F2 F2 F2 | G4 F2 ^D2 | %44
w: * * * ex- qui\-|* runt e- um,|ex-|qui- runt e\-||um, in to- to|cor- de ex-|
 E2 F2 (G2 FE | FG A4 G2 | F8) | E4 z4 | z4 z2 E2 | F2 ^G2 (A2 =GF | E2 DCDE F2- | FE E4 ^D2) | %52
w: qui- runt e\- * *|||um,|ex-|qui- runt e\- * *|||
 E8 |] %53
w: um.|
V:3
 z8 | z8 | z8 | B8 | G4 A2 d2 | c2 d2 B4 | c2 d2 (c2 BA | B2 G2 A2 B2) | B4 z2 d2 | c2 d2 B2 B2 | %10
w: |||Be-|a- ti im-|ma- cu- la-|ti in vi\- * *||a, be-|a- * ti im-|
 c2 d2 (c2 BA) | B4 z2 B2 | (GFED E4) | F8 | z8 | z8 | z2 E2 B3 B | B2 A2 d2 e2 | d2 B2 A4 | z8 | %20
w: ma- cu- la\- * *|ti in|vi\- * * * *|a:|||qui am- bu-|lant in le- ge|Do- mi- ni,||
 z4 z2 F2 | A3 A B2 c2 | d2 e2 d2 G2 | D4 z4 | z8 | z2 E2 B4 | G2 E2 F2 (G2- | G2 F2 E4) | %28
w: qui|am- bu- lant in|le- ge Do- mi-|ni.||Be- a-|ti qui scru- tan\-||
 B4 z2 B2- | B2 A2 (F2 D2 | A4 B4 | z2 d4 c2 | A2 B2 =c4 | (B3 A G2 A2 | F4 B4) | B8- | B4 z4 | %37
w: tur, qui|* scru- tan\- *|* tur|te- sti-|mo- ni- a|e\- * * *||jus:||
 z2 B2 B2 B2 | G2 E2 z2 B2 | A2 F2 EFGA | B3 AGF G2 | E2 F2 G2 E2) | F8 | z4 z2 B2 | e2 d2 (GABc | %45
w: in to- to|cor- de ex-|qui- runt e\- * * *|||um,|ex-|qui- runt e\- * * *|
 de f2 d2 e2) | B8 | z2 E2 F2 G2 | F4 E4 | z2 B2 =c2 c2 | (G3 A B2 =c2 | B8) | B8 |] %53
w: |um,|ex- qui- runt|e- um,|ex- qui- runt|e\- * * *||um.|
V:4
 z8 | z8 | z8 | B,,8 | E,4 D,2 B,,2 | F,2 F,2 G,4 | F,2 D,2 F,2 G,2 | E,4 D,2 B,,2 | E,4 D,2 B,,2 | %9
w: |||Be-|a- ti im-|ma- cu- la-|ti, im- ma- cu-|la- ti, be-|a- ti im-|
 F,2 F,2 G,4 | F,2 D,2 (F,2 G,2) | (E,F,G,A, B,2) B,,2 | =C,8 | B,,8 | z8 | z8 | z4 z2 B,,2 | %17
w: ma- cu- la-|ti in vi\- *|a, * * * * in|vi-|a:|||qui|
 D,3 D, D,2 C,2 | D,2 E,2 (F,2 D,2 | E,3 D,B,,C, D,2- | D,C,B,,A,, B,,2) B,,2 | A,,4 z4 | %22
w: am- bu- lant in|le- ge Do\- *||* * * * * mi-|ni,|
 z2 E,2 G,3 G, | G,2 F,2 G,2 A,2 | B,2 E,2 B,2 B,,2 | E,4 D,2 B,,2- | B,,2 C,2 (D,2 E,2- | %27
w: qui am- bu-|lant in le- ge|Do- mi- ni. Be-|a- ti qui|* scru- tan\- *|
 E,D, B,,2 =C,4) | B,,2 E,4 D,2 | B,,2 C,2 D,4 | A,,4 E,4 | z2 B,,4 A,,2 | F,,2 G,,2 A,,4 | %33
w: |tur te- sti-|mo- ni- a|e- jus,|te- sti-|mo- ni- a|
 (B,,4 =C,2 A,,2 | B,,8) | E,4 z4 | z8 | z2 B,,2 B,,2 B,,2 | =C,4 B,,2 B,,2 | B,,2 ^D,2 (E,4- | %40
w: e\- * *||jus:||in to- to|cor- de ex-|qui- runt e\-|
 E,2 ^D,2 E,4- | E,2 D,2 =C,4) | B,,8 | z8 | z8 | z8 | z2 B,,2 B,,2 B,,2 | =C,4 B,,2 G,,2 | %48
w: ||um,||||in to- to|cor- de ex-|
 A,,2 B,,2 =C,4 | B,,4 A,,2 (=C,2- | C,2 B,,A,, G,,2) A,,2 | B,,8 | E,8 |] %53
w: qui- runt e-|um, ex- qui\-|* * * * runt|e-|um.|

